src/actions/16/view-financial-category-edit.svg

<svg version="1.1" viewBox="0 0 16 16" xmlns="http://www.w3.org/2000/svg">
    <style id="current-color-scheme" type="text/css">.ColorScheme-Text { color: #363636; }</style>
    <path d="m2 2v1h11v2h1v-3h-12zm0 2v10h4v-1h-3v-8h9v-1h-10zm2 2v1h2v-1h-2zm3 0v1c2.271 0.034398 1 0 1 0h5v1h1v-2h-7zm5 2-4 4v2h2l4-4-2-2zm-8 1v1h1v-1h-1zm7.6895 0.68945 0.5918 0.5918-2.9688 2.9844v0.015625l-0.59375-0.59375 2.9707-2.998zm-7.6895 1.3105v1h2v-1h-2z" class="ColorScheme-Text" fill="currentColor"/>
</svg>

<svg xmlns="http://www.w3.org/2000/svg" viewBox="0 0 16 16">
    <path fill="currentColor" d="M2 2v1h11v2h1V2H2zm0 2v10h4v-1H3V5h9V4H2zm2 2v1h2V6H4zm3 0v1c2.271.034 1 0 1 0h5v1h1V6H7zm5 2-4 4v2h2l4-4-2-2zM4 9v1h1V9H4zm7.69.69.591.591-2.969 2.985v.015l-.593-.593 2.97-2.998zM4 11v1h2v-1H4z" style="color:#050505;opacity:.7"/>
</svg>
